X: 1
T: Beauties Of Ireland, The
M: 6/8
L: 1/8
R: jig
K: Dmaj
F2D DD/D/D | AFD DEF | E2C A,A,/A,/A, | ECA, A,CE |
F2D DD/D/D | AFD DFA | Bcd edc | [1 d2B A2G :| [2 d3 d2e ||
|: f2d def | gbg faf | ecA AB/c/d | ecA Ace |
f2d def | gbg faf | ecA Ace | [1 d3 d2e :| [2 d2B A2G ||
